X: 18
T: Miss McLeod's
R: reel
M: 4/4
L: 1/8
K: Gmaj
G2gf efge|dBBA BcdB|g/a/g fg efge|af (3gfe dgba|
ga/g/ fg efge|dBBA Bcdf|egfa gbaf|gedB cAFA:|
|:FGBG DG Bz|B3A BcBA|FGBG DGAB|AFDF BGAF|
G2BG DGBA|B3A Bcdf|egfa gbaf|gedB cAFA:|


Tune 75	Setting 29406

